src/topics/icons/angular.svg

<svg height="139" viewBox="0 0 512 139" width="512" xmlns="http://www.w3.org/2000/svg"><g fill="none" fill-rule="evenodd"><g fill="#b52e31" transform="translate(150 31)"><path d="m.6 71.8v-63h8.1l38.5 50.7v-50.7h7.7v63h-8.1l-38.5-51.2v51.2z"/><path d="m117.6 69.3c-5.1 1.9-10.6 2.9-16.4 2.9-22.8 0-34.2-10.9-34.2-32.8 0-20.7 11-31.1 33-31.1 6.3 0 12.2.9 17.6 2.6v7c-5.4-2.1-11-3.1-16.7-3.1-17.2 0-25.8 8.2-25.8 24.4 0 17.5 8.5 26.2 25.4 26.2 2.7 0 5.7-.4 9-1.1v-21.1h8.1z"/><path d="m130.6 47.5v-38.7h8.1v38.7c0 12.1 6 18.2 18.1 18.2 12 0 18.1-6.1 18.1-18.2v-38.7h8.1v38.7c0 16.5-8.7 24.8-26.2 24.8s-26.2-8.3-26.2-24.8z"/><path d="m205.6 8.8v56.4h33v6.6h-41.1v-63z"/><path d="m250.3 71.8h-8.5l31.3-71.3 31.3 71.3h-9l-8.1-19.8h-20.8l2.2-6.6h15.9l-11.8-28.5z"/><path d="m313.1 71.8v-63h26.9c12 0 18 5 18 15.1 0 8.2-5.9 14.3-17.6 18.2l21.6 29.7h-10.7l-20-28.3v-5.3c12-1.9 18.1-6.5 18.1-13.9 0-5.8-3.3-8.7-10-8.7h-18v56.2z"/></g><path d="m0 23 64.5-23 66.2 22.6-10.7 85.3-55.5 30.7-54.6-30.3z" fill="#e23237"/><path d="m130.7 22.6-66.2-22.6v138.6l55.5-30.7z" fill="#b52e31"/><path d="m64.6 16.2-40.2 89.4 15-.3 8.1-20.2h17.1 18.8l8.8 20.4 14.3.3zm.1 28.7 13.6 28.4h-13-.7-11.8z" fill="#fff"/></g></svg>

<?xml version="1.0" encoding="UTF-8" standalone="no"?>
<svg width="512px" height="139px" viewBox="0 0 512 139" version="1.1" xmlns="http://www.w3.org/2000/svg" xmlns:xlink="http://www.w3.org/1999/xlink">
    <defs></defs>
    <g stroke="none" stroke-width="1" fill="none" fill-rule="evenodd">
        <g>
            <g transform="translate(150.000000, 31.000000)" fill="#B52E31">
                <path d="M0.6,71.8 L0.6,8.8 L8.7,8.8 L47.2,59.5 L47.2,8.8 L54.9,8.8 L54.9,71.8 L46.8,71.8 L8.3,20.6 L8.3,71.8 L0.6,71.8 L0.6,71.8 Z"></path>
                <path d="M117.6,69.3 C112.5,71.2 107,72.2 101.2,72.2 C78.4,72.2 67,61.3 67,39.4 C67,18.7 78,8.3 100,8.3 C106.3,8.3 112.2,9.2 117.6,10.9 L117.6,17.9 C112.2,15.8 106.6,14.8 100.9,14.8 C83.7,14.8 75.1,23 75.1,39.2 C75.1,56.7 83.6,65.4 100.5,65.4 C103.2,65.4 106.2,65 109.5,64.3 L109.5,43.2 L117.6,43.2 L117.6,69.3 L117.6,69.3 Z"></path>
                <path d="M130.6,47.5 L130.6,8.8 L138.7,8.8 L138.7,47.5 C138.7,59.6 144.7,65.7 156.8,65.7 C168.8,65.7 174.9,59.6 174.9,47.5 L174.9,8.8 L183,8.8 L183,47.5 C183,64 174.3,72.3 156.8,72.3 C139.3,72.3 130.6,64 130.6,47.5 L130.6,47.5 L130.6,47.5 Z"></path>
                <path d="M205.6,8.8 L205.6,65.2 L238.6,65.2 L238.6,71.8 L197.5,71.8 L197.5,8.8 L205.6,8.8 L205.6,8.8 Z"></path>
                <path d="M250.3,71.8 L241.8,71.8 L273.1,0.5 L304.4,71.8 L295.4,71.8 L287.3,52 L266.5,52 L268.7,45.4 L284.6,45.4 L272.8,16.9 L250.3,71.8 L250.3,71.8 Z"></path>
                <path d="M313.1,71.8 L313.1,8.8 L340,8.8 C352,8.8 358,13.8 358,23.9 C358,32.1 352.1,38.2 340.4,42.1 L362,71.8 L351.3,71.8 L331.3,43.5 L331.3,38.2 C343.3,36.3 349.4,31.7 349.4,24.3 C349.4,18.5 346.1,15.6 339.4,15.6 L321.4,15.6 L321.4,71.8 L313.1,71.8 L313.1,71.8 Z"></path>
            </g>
            <g>
                <path d="M0,23 L64.5,0 L130.7,22.6 L120,107.9 L64.5,138.6 L9.9,108.3 L0,23 L0,23 Z" fill="#E23237"></path>
                <path d="M130.7,22.6 L64.5,0 L64.5,138.6 L120,107.9 L130.7,22.6 L130.7,22.6 Z" fill="#B52E31"></path>
                <path d="M64.6,16.2 L64.6,16.2 L24.4,105.6 L39.4,105.3 L47.5,85.1 L64.6,85.1 L83.4,85.1 L92.2,105.5 L106.5,105.8 L64.6,16.2 L64.6,16.2 Z M64.7,44.9 L78.3,73.3 L65.3,73.3 L64.6,73.3 L52.8,73.3 L64.7,44.9 L64.7,44.9 Z" fill="#FFFFFF"></path>
            </g>
        </g>
    </g>
</svg>
